X:1
T:Title
%%score { ( 1 4 ) | ( 2 3 ) }
L:1/8
Q:1/4=90
M:6/8
K:A
V:1 treble nm="Grand Piano"
V:4 treble 
V:2 bass 
V:3 bass 
V:1
 [CE]FG ABc | [Fd]AB [Ec]3 | [Ec]dc [DB]cB | [CA]GF E3 | [CE]FG ABc | [Fd]AB c2- [Ac] | %6
w: J.~M.~Black * * * * *||||||
[M:7/8] [ce][Bd][Ac] [FB][FA] [DF]2 |[M:3/4] [CE]A B [CA]3 | c-[Ec-] [Ec-][Ec] [CE][DF] | E4 z2 | %10
w: ||||
 d-[Fd-] [Fd-][Dd] FG | A4 z2 | [CA]3 .[CA]3 | B4 z2 | [CA]2 [CA] [^DG]2 [DA] | [EB]6 | c4 z2 | %17
w: |||||||
 E4 z2 | d-[Fd-] [Fd-][Dd] FG | A4 z2 | A4 z2 |[M:7/8] [Fe]3 [Fd]3 [Fd] | c3 c3 B |[M:3/4] [CA]6 |] %24
w: |||||||
V:2
 z DD CDE | z[K:treble] FF[K:bass] [A,,A,]3 | z[K:treble] FE[K:bass] z ED | z ED C3 | %4
 z[K:treble] DD CDE | z FF[K:bass] [A,,A,]3 |[M:7/8] [A,,,A,,][B,,,B,,][C,,C,] [D,,D,] [D,,D,]3 | %7
[M:3/4] z C D [A,,A,]3 | [A,,A,][A,,A,] [A,,A,][A,,A,] [A,,A,][A,,A,] | %9
 [A,,A,][A,,A,] [A,,A,] .[A,,A,]3 | [D,A,][D,A,] [D,A,][D,F,] [D,A,D][D,A,D] | %11
 [A,,A,][A,,E,] [A,,E,] .[A,,A,]3 | [A,,A,]A,, A,,F, F,[F,A,C] | E-[E,E-] [E,E]A, A,A, | %14
 [F,A,]3 [B,,B,]3 | [E,G,]E, E, .E,3 | [A,,A,][A,,A,] [A,,A,][A,,A,] [A,,A,][A,,A,] | %17
 [A,,A,][A,,A,] [A,,A,] .[A,,A,]3 | [D,A,][D,A,] [D,A,][D,F,] [D,A,D][D,A,D] | A,,C, E, .A,3 | %20
 A,,A,, A,,C, [B,,G,][A,,A,] |[M:7/8] [D,A,]3 [D,A,]3 [D,A,] | [E,A,E]3 [E,G,E]3 [E,G,D] | %23
[M:3/4] [A,,A,]6 |] %24
V:3
 [A,,A,]6 | [D,A,]3[K:treble][K:bass] z3 | [A,,A,]3[K:treble][K:bass] [E,,E,]3 | [A,,A,]6 | %4
 [A,,A,]6[K:treble] | [D,A,]3[K:bass] z3 |[M:7/8] x7 |[M:3/4] [E,,E,]4 z2 | x6 | x6 | x6 | x6 | %12
 x6 | .[E,G,]2 z2 z2 | x6 | x6 | x6 | x6 | x6 | x6 | x6 |[M:7/8] x7 | x7 |[M:3/4] x6 |] %24
V:4
 x6 | x6 | x6 | x6 | x6 | z3 .E3 |[M:7/8] x7 |[M:3/4] x6 | .E2 z2 z2 | CC C .[CA]3 | .F2 z2 z2 | %11
 CC C .[CE]3 | z A, A,A, A,A | z G, G, [Ec]2 [DB] | x6 | z G, G, .G,3 | EE EE [CE][DF] | %17
 CC C .[CA]3 | .F2 z2 z2 | [A,C][A,C] [A,C] .[CE]3 | [CE][CE] [CE][A,E] [EB][=Gc] |[M:7/8] x7 | %22
 x7 |[M:3/4] x6 |] %24

